icon/pk/switch-nintendo.svg

<svg viewBox="0 0 48 48" fill="none" xmlns="http://www.w3.org/2000/svg" height="1em" width="1em">
  <path d="M6 12C6 7.58172 9.58172 4 14 4H19C20.1046 4 21 4.89543 21 6V40C21 41.1046 20.1046 42 19 42H14C9.58172 42 6 38.4183 6 34V12Z" fill="#2F88FF" stroke="black" stroke-width="4"/>
  <path d="M42 14C42 9.58172 38.4183 6 34 6H28C26.8954 6 26 6.89543 26 8V42C26 43.1046 26.8954 44 28 44H34C38.4183 44 42 40.4183 42 36V14Z" fill="#2F88FF" stroke="black" stroke-width="4"/>
  <rect x="11" y="30" width="5" height="5" rx="2.5" fill="white"/>
  <rect x="31.5" y="14" width="5" height="5" rx="2.5" fill="white"/>
  <path d="M15 17H12" stroke="white" stroke-width="4" stroke-linecap="round" stroke-linejoin="round"/>
  <path d="M34 28V34" stroke="white" stroke-width="4" stroke-linecap="round" stroke-linejoin="round"/>
  <path d="M31 31L37 31" stroke="white" stroke-width="4" stroke-linecap="round" stroke-linejoin="round"/>
</svg>

<svg width="48" height="48" fill="none" xmlns="http://www.w3.org/2000/svg"><path d="M6 12a8 8 0 0 1 8-8h5a2 2 0 0 1 2 2v34a2 2 0 0 1-2 2h-5a8 8 0 0 1-8-8V12ZM42 14a8 8 0 0 0-8-8h-6a2 2 0 0 0-2 2v34a2 2 0 0 0 2 2h6a8 8 0 0 0 8-8V14Z" fill="#2F88FF" stroke="#000" stroke-width="4"/><rect x="11" y="30" width="5" height="5" rx="2.5" fill="#fff"/><rect x="31.5" y="14" width="5" height="5" rx="2.5" fill="#fff"/><path d="M15 17h-3M34 28v6M31 31h6" stroke="#fff" stroke-width="4" stroke-linecap="round" stroke-linejoin="round"/></svg>
